remix/Device/gradienter-line.svg

<svg viewBox="0 0 24 24" fill="currentColor" xmlns="http://www.w3.org/2000/svg"><path d="M2.04932 13H4.06184C4.55393 16.9463 7.92032 20 11.9999 20C16.0796 20 19.4459 16.9463 19.938 13H21.9506C21.4488 18.0533 17.1853 22 11.9999 22C6.81459 22 2.55104 18.0533 2.04932 13ZM2.04932 11C2.55104 5.94668 6.81459 2 11.9999 2C17.1853 2 21.4488 5.94668 21.9506 11H19.938C19.4459 7.05369 16.0796 4 11.9999 4C7.92032 4 4.55393 7.05369 4.06184 11H2.04932ZM11.9999 14C10.8954 14 9.99994 13.1046 9.99994 12C9.99994 10.8954 10.8954 10 11.9999 10C13.1045 10 13.9999 10.8954 13.9999 12C13.9999 13.1046 13.1045 14 11.9999 14Z"/></svg>

<svg viewBox="0 0 24 24" xmlns="http://www.w3.org/2000/svg"><path fill="none" d="M0 0h24v24H0Z"/><path d="M2.05 13H4.06 4.06c.55 4.38 4.55 7.48 8.94 6.93 3.62-.46 6.47-3.32 6.93-6.94h2.01c-.51 5.05-4.77 9-9.951 9 -5.19 0-9.449-3.95-9.95-9Zm0-2c.5-5.053 4.76-9 9.95-9 5.186 0 9.44 3.947 9.95 9h-2.02v0c-.56-4.39-4.56-7.49-8.95-6.94 -3.63.45-6.48 3.31-6.94 6.93H2.02ZM12 14v0c-1.11 0-2-.9-2-2 0-1.11.89-2 2-2v0c1.1 0 2 .89 2 2 0 1.1-.9 2-2 2Z"/></svg>
